X:1
%
T:Rigged Ship, The
T:
M:6/8
L:1/8
R:Jig
K:Emin
A|B2E EFE|BAB d2B|A2F DED|FEF A2A|
B2E EFE|BAB d2B|A2F DEF|E3 E2:|
|:B|e2B e2B|efg f2e|d2A d2A|def e2B|
e2B e2B|efg f2e|d2B A2F|DEF E2:|]

